X:1
T:Three Blind Mice
M:6/8
L:1/8
K:C
 E3 D3| C6| E3 D3| C6| G3 F2 F| E6| G3 F2 F| E4- EG| c2 c BAB| c2 G G2 G|\
 ccc BAB| c2 G G2 G/2G/2| c2 c BAB| cGG G2 F| E3 D3| C4- C z|
